!!!COM: Palestrina, Giovanni Perluigi da
!!!OPR: Missa O admirabile commercium
!!!OMD: Credo
!!!OTL: Et resurrexit
**kern	**kern	**kern	**kern
*Ibass	*Itenor	*Itenor	*Icalto
!Bassus	!Tenor 2	!Tenor 1	!Altus
*clefF4	*clefGv2	*clefGv2	*clefG2
*k[]	*k[]	*k[]	*k[]
*G:mix	*G:mix	*G:mix	*G:mix
*M3/2	*M3/2	*M3/2	*M3/2
=82	=82	=82	=82
1G	1B	1d	1g
2r	2r	2r	2r
=83	=83	=83	=83
2G	1r	2g	1r
2A	.	2f	.
2B	2r	2g	2r
=84	=84	=84	=84
1c	2r	1e	2g
.	2r	.	2a
2B	2d	2d	2b
=85	=85	=85	=85
1A	2e	2c	1cc
.	2f	2c	.
2G	2g	2d	2b
=86	=86	=86	=86
4F	2c	2f	1a
4G	.	.	.
4A	2f	2c	.
4B	.	.	.
2c	2e	2r	2g
=87	=87	=87	=87
2F	1d	1r	2f
2G	.	.	1e
2A	2c#	2r	.
=88	=88	=88	=88
1D	2d	2r	2f#
.	2r	2d	2f#
2r	2r	2e	2g
=89	=89	=89	=89
2r	1r	2f#	2a
2r	.	2.g	2.e
2C	2r	.	.
.	.	4f#	4f#
=90	=90	=90	=90
2E	2r	4e	2g
.	.	4d	.
2F	2A	2c	2.a
2G	2B	2B	.
.	.	.	4g
=91	=91	=91	=91
2E	4c#	4A	1g
.	4c#	4G	.
1D	1d	1A	.
.	.	.	2f#
=92	=92	=92	=92
2r	1.d	2G	[1.g
2G	.	2B	.
2G	.	2B	.
=93	=93	=93	=93
1c	1r	1e	2g]
.	.	.	2r
2B	2r	2d	2g
=94	=94	=94	=94
2c	1r	2e	2g
1A	.	4c	1cc
.	.	4d	.
.	2r	4e	.
.	.	4f#	.
=95	=95	=95	=95
1G	2r	1g	2.b
.	2d	.	.
.	.	.	4a
2G	2d	2g	4b
.	.	.	4g
=96	=96	=96	=96
4F	1f	[1.c	1a
4G	.	.	.
4A	.	.	.
4B	.	.	.
2c	2e	.	2g
=97	=97	=97	=97
2F	2f	2c]	2.cc
1G	1d	1g	.
.	.	.	8b
.	.	.	8a
.	.	.	2b
=98	=98	=98	=98
2r	2c	2e	2cc
2c	2g	2e	2cc
2F	2a	2f	2cc
=99	=99	=99	=99
2G	2g	2d	2b
2.D	2.f	2.d	2.a
4D	4f	4d	4a
=100	=100	=100	=100
2.A	2.e	2.c	2.a
4B	4d	4B	4g
2c#	4e	2A	2a
.	4f	.	.
=101	=101	=101	=101
1d	2g	2G	2b-
.	1e	1A	1a
2c#	.	.	.
=102	=102	=102	=102
2d	2f	2r	2r
2D	2f	2d	2a
2F	2f	2c	2a
=103	=103	=103	=103
2G	2d	2B	2g
2.C	2.g	2.c	2.e
4C	4g	4c	4e
=104	=104	=104	=104
1G	1g	2B	2d
.	.	2.e	2.g
[2A	[2c	.	.
.	.	4d	8f#
.	.	.	8e
=105	=105	=105	=105
2A]	2c]	1c	2f#
1G	1d	.	1g
.	.	2B	.
=106	=106	=106	=106
1.C	1.e	1.c	1.g
*-	*-	*-	*-
!!!CDT: 1525/^1526/-1594/2/2
!!!OCY: Italia
!!!AGN: Mass (Parody)
!!!AST: renaissance, vocal
!!!ASW: Motet 1569 (Palestrina)
!!!PWK: Masses, Book 8
!!!RNB: Cadence finals: C,D
!!!YOR: Le Opere Complete, v. 24, p. 52
!!!YOO: Rome, Italy: Fratelli Scalera
!!!END: 1992//
!!!EED: John Miller
!!!YEC: Copyright 2000, John Miller
!!!YEN: United States of America
!!!YEM: Rights to all derivative electronic formats reserved.
!!!YEM: Refer to licensing agreement for further details.
!!!YEM: This file must be accompanied by the licensing agreement.
!!!YEM: A copy of the licensing agreement may be found at http://www.music-cog.ohio-state.edu/HumdrumDatabases/Palestrina/license.txt
!!!EMD: converted to Humdrum by Bret Aarden
